icons/linear-new-sound-broadcast-volume-down.svg

<svg xmlns="http://www.w3.org/2000/svg" width="32px" height="32px" viewBox="0 0 32 32" version="1.1">
    <title>linear-new-sound-broadcast-volume-down</title>
    <g id="linear-new-sound-broadcast-volume-down" stroke-width="1" fill-rule="evenodd">
        <path d="M19.5355339,12.4644661 C21.4881554,14.4170876 21.4881554,17.5829124 19.5355339,19.5355339 C19.1450096,19.9260582 18.5118446,19.9260582 18.1213203,19.5355339 C17.7307961,19.1450096 17.7307961,18.5118446 18.1213203,18.1213203 C19.2928932,16.9497475 19.2928932,15.0502525 18.1213203,13.8786797 C17.7307961,13.4881554 17.7307961,12.8549904 18.1213203,12.4644661 C18.5118446,12.0739418 19.1450096,12.0739418 19.5355339,12.4644661 Z M14.2928932,2.29289322 C14.9228581,1.66292836 16,2.10909515 16,3 L16,29 C16,29.8909049 14.9228581,30.3370716 14.2928932,29.7071068 L7.585,23 L2,23 C1.48716416,23 1.06449284,22.6139598 1.00672773,22.1166211 L1,22 L1,10 C1,9.44771525 1.44771525,9 2,9 L7.584,9 L14.2928932,2.29289322 Z M14,5.414 L8.70710678,10.7071068 C8.5195704,10.8946432 8.26521649,11 8,11 L3,11 L3,21 L8,21 C8.22101374,21 8.43448403,21.0731645 8.60802951,21.2060806 L8.70710678,21.2928932 L14,26.585 L14,5.414 Z" id="&#24418;&#29366;" fill-rule="nonzero" />
    </g>
</svg>

<svg xmlns="http://www.w3.org/2000/svg" viewBox="0 0 32 32"><path fill="currentColor" d="M19.536 12.464a5 5 0 0 1 0 7.072 1 1 0 0 1-1.415-1.415 3 3 0 0 0 0-4.242 1 1 0 0 1 1.415-1.415M14.293 2.293C14.923 1.663 16 2.109 16 3v26c0 .89-1.077 1.337-1.707.707L7.585 23H2a1 1 0 0 1-.993-.883L1 22V10a1 1 0 0 1 1-1h5.584zM14 5.414l-5.293 5.293A1 1 0 0 1 8 11H3v10h5a1 1 0 0 1 .608.206l.1.087L14 26.585z"/></svg>
